X: 21157
T: Kathleen Katz'
R: jig
M: 6/8
K: Bminor
|:BAF FED|EFE A,B,C|DCD EDE|FBB Bcd|
BAF FED|EFE A,B,C|DCD EDE|1 FDB, B,2A:|2 FDB, B,2A||
BFB Bcd|cec ABc|dcd ede|fdB BAF|
BFB Bcd|cec ABc|dcB AFE|FBB B2A|
BFB Bcd|cec ABc|dcd ede|fbb bc'd'|
baf fed|efe ABc|dcB AFE|FBB B2A||

